src/images/documents/svg/rtf.svg

<svg fill="none" height="120" viewBox="0 0 80 120" width="80" xmlns="http://www.w3.org/2000/svg"><path d="m1 119v-118h58.5858l19.4142 19.4142v98.5858z" fill="#fff" stroke="#0065bd" stroke-width="2"/><g fill="#0065bd"><path d="m80 20-20-20v20z"/><path d="m10 60h59.9997v5h-59.9997z"/><path d="m10 70h59.9997v5h-59.9997z"/><path d="m10 80h30v5h-30z"/><path d="m10 28h60v27h-60z"/></g><path d="m25.5334 35.5586h4.6399c.9514 0 1.7688.1424 2.4524.4272.6893.2849 1.2191.7064 1.5894 1.2647s.5554 1.2447.5554 2.0593c0 .6665-.1139 1.239-.3418 1.7175-.2222.4729-.5383.8688-.9485 1.1878-.4044.3133-.8801.564-1.427.7519l-.8117.4273h-4.0332l-.0171-1.9995h2.9992c.4501 0 .8232-.0798 1.1194-.2393s.5184-.3817.6665-.6665c.1538-.2848.2307-.6152.2307-.9912 0-.3988-.074-.7434-.2221-1.0339-.1481-.2906-.3732-.5127-.6751-.6665s-.6807-.2307-1.1365-.2307h-2.0764v10.4333h-2.5635zm6.9556 12.4414-2.8369-5.5457 2.7087-.017 2.8711 5.4431v.1196zm9.3054-12.4414v12.4414h-2.5549v-12.4414zm3.8282 0v2.0081h-10.1514v-2.0081zm4.0246 0v12.4414h-2.5635v-12.4414zm4.9561 5.3149v1.9995h-5.6568v-1.9995zm.5981-5.3149v2.0081h-6.2549v-2.0081z" fill="#fff"/></svg>

<svg width="80" height="120" viewBox="0 0 80 120" fill="none" xmlns="http://www.w3.org/2000/svg">
<path d="M1.00098 119V1H59.5868L79.001 20.4142V119H1.00098Z" fill="white" stroke="#0065BD" stroke-width="2"/>
<path d="M80.0011 20L60.0011 0V20H80.0011Z" fill="#0065BD"/>
<rect x="10.0005" y="60" width="59.9997" height="5" fill="#0065BD"/>
<rect x="10.0005" y="70" width="59.9997" height="5" fill="#0065BD"/>
<rect x="10.0005" y="80" width="30" height="5" fill="#0065BD"/>
<rect x="10.0005" y="28" width="60" height="27" fill="#0065BD"/>
<path d="M25.5339 35.5586H30.1738C31.1252 35.5586 31.9426 35.701 32.6262 35.9858C33.3155 36.2707 33.8453 36.6922 34.2156 37.2505C34.5859 37.8088 34.771 38.4952 34.771 39.3098C34.771 39.9763 34.6571 40.5488 34.4292 41.0273C34.207 41.5002 33.8909 41.8961 33.4807 42.2151C33.0763 42.5284 32.6006 42.7791 32.0537 42.967L31.2419 43.3943H27.2087L27.1917 41.3948H30.1909C30.641 41.3948 31.0141 41.315 31.3103 41.1555C31.6065 40.996 31.8287 40.7738 31.9768 40.489C32.1306 40.2042 32.2075 39.8738 32.2075 39.4978C32.2075 39.099 32.1335 38.7544 31.9854 38.4639C31.8372 38.1733 31.6122 37.9512 31.3103 37.7974C31.0084 37.6436 30.6296 37.5667 30.1738 37.5667H28.0974V48H25.5339V35.5586ZM32.4895 48L29.6526 42.4543L32.3613 42.4373L35.2324 47.8804V48H32.4895ZM41.7949 35.5586V48H39.24V35.5586H41.7949ZM45.623 35.5586V37.5667H35.4717V35.5586H45.623ZM49.6477 35.5586V48H47.0842V35.5586H49.6477ZM54.6038 40.8735V42.873H48.947V40.8735H54.6038ZM55.2019 35.5586V37.5667H48.947V35.5586H55.2019Z" fill="white"/>
</svg>
